shader_type canvas_item;
render_mode blend_add;
//void fragment() {
	//vec4 tex_color = texture(TEXTURE, UV);
	//float a=(tex_color.r+tex_color.g+tex_color.b)/3.0;
	//float alpha = pow(a, 2.2);
	//COLOR.a=alpha;
//}